X:126
T:Rigodon de Pelafol
A:Dauphin\'e
O:France
M:2/4
L:1/8
Q:1/8=160
K:G
GB|d2e/2f/2 g/2e/2|ddGB|d3/2 e/2 d/2c/2B/2A/2|G2:|
:|G/2B/2 G/2B/2|AAA/2c/2 A/2c/2|BB e/2f/2 g/2e/2|d3/2 e/2 d/2c/2
B/2A/2|G2:|
